X: 24
T: My Cape Breton Home
R: slow air, waltz
C: \251 1988 Jerry Holland (1955-2009)
M: 3/4 %% X:48 WJ 2015
L: 1/8
K: G
g |\
"G"g3 g fg |"D"a2 f2 d2 | "C"c3 c Bc | "G"d2 B2 G2 |\
g3 g fg |"D"a2 f2 d2 |"Am7"c3 c Bc |"D7"d3 f2 g |
"G"g3 g fg |"D"a2 f2 d2 | "C"c3 c Bc | "G"d2 B2 G2 "^I"|\
"Am7"E c3 cB |"D"A3 G F2 | "G(C)"G6 | "G"G4- G :|
|: D |\
"G"D3 G B2 | "C"c3 c Bc |"G"d3 B G2 |"Am"A2 G2 "D7"E2 |\
"G"D3 G B2 | "C"c3 c Bc |"G"d g3 gf |"D7"d2 c2 A2 |
"G"D3 G B2 | "C"c3 c Bc |"G"d3 B G2 |"Am"A2 G2 "D7"E2 |\
"G"D g3 fg |"Am7"d2 c2 "D7"A2 |"G(C)"G6 | "G"G4- G :|


